24x24/apps/Ripcord_Icon.svg

<svg height="24" width="24" xmlns="http://www.w3.org/2000/svg"><path d="m11.983 7.5a1.068.747 0 0 0 -.738.219l-8.933 6.252a1.068.747 0 0 0 0 1.057l8.933 6.254a1.068.747 0 0 0 1.509 0l8.934-6.254a1.068.747 0 0 0 0-1.057l-8.934-6.252a1.068.747 0 0 0 -.77-.219zm.017 2.132 6.955 4.867-6.955 4.871-6.955-4.87z" opacity=".2"/><path d="m11.983 7a1.068.747 0 0 0 -.738.219l-8.933 6.252a1.068.747 0 0 0 0 1.057l8.933 6.254a1.068.747 0 0 0 1.509 0l8.934-6.254a1.068.747 0 0 0 0-1.057l-8.934-6.252a1.068.747 0 0 0 -.77-.219zm.017 2.132 6.955 4.868-6.955 4.87-6.955-4.87z" fill="#435779"/><path d="m11.983 5.5a1.068.747 0 0 0 -.738.219l-8.933 6.251a1.068.747 0 0 0 0 1.057l8.933 6.253a1.068.747 0 0 0 1.509 0l8.934-6.253a1.068.747 0 0 0 0-1.057l-8.934-6.252a1.068.747 0 0 0 -.77-.219zm.017 2.132 6.955 4.867-6.955 4.871-6.955-4.87z" opacity=".2"/><path d="m11.983 5a1.068.747 0 0 0 -.738.219l-8.933 6.251a1.068.747 0 0 0 0 1.057l8.933 6.253a1.068.747 0 0 0 1.509 0l8.934-6.253a1.068.747 0 0 0 0-1.057l-8.934-6.252a1.068.747 0 0 0 -.77-.219zm.017 2.132 6.955 4.867-6.955 4.871-6.955-4.87z" fill="#ff9556"/><path d="m11.983 3.5a1.068.747 0 0 0 -.738.219l-8.933 6.252a1.068.747 0 0 0 0 1.057l8.933 6.254a1.068.747 0 0 0 1.509 0l8.934-6.254a1.068.747 0 0 0 0-1.057l-8.934-6.252a1.068.747 0 0 0 -.77-.219zm.017 2.132 6.955 4.867-6.955 4.871-6.955-4.87z" opacity=".2"/><path d="m11.983 3a1.068.747 0 0 0 -.738.219l-8.933 6.252a1.068.747 0 0 0 0 1.057l8.933 6.254a1.068.747 0 0 0 1.509 0l8.934-6.254a1.068.747 0 0 0 0-1.057l-8.934-6.252a1.068.747 0 0 0 -.77-.219zm.017 2.132 6.955 4.868-6.955 4.87-6.955-4.87z" fill="#6187ab"/><path d="m11.983 3a1.068.747 0 0 0 -.738.219l-8.933 6.251a1.068.747 0 0 0 -.25.778 1.068.747 0 0 1 .25-.278l8.933-6.252a1.068.747 0 0 1 .738-.219 1.068.747 0 0 1 .77.219l8.935 6.252a1.068.747 0 0 1 .25.278 1.068.747 0 0 0 -.25-.778l-8.934-6.252a1.068.747 0 0 0 -.77-.219zm-6.58 7.249-.358.25 6.955 4.87 6.955-4.87-.357-.25-6.598 4.62z" fill="#f4f4f7" opacity=".2"/></svg>

<svg height="24" width="24" xmlns="http://www.w3.org/2000/svg">
    <path d="M11.983 7.5a1.068.747 0 0 0-.738.219l-8.933 6.252a1.068.747 0 0 0 0 1.057l8.933 6.254a1.068.747 0 0 0 1.509 0l8.934-6.254a1.068.747 0 0 0 0-1.057l-8.934-6.252a1.068.747 0 0 0-.77-.219zM12 9.632l6.955 4.867L12 19.37 5.045 14.5z" opacity=".2"/>
    <path d="M11.983 7a1.068.747 0 0 0-.738.219l-8.933 6.252a1.068.747 0 0 0 0 1.057l8.933 6.254a1.068.747 0 0 0 1.509 0l8.934-6.254a1.068.747 0 0 0 0-1.057l-8.934-6.252a1.068.747 0 0 0-.77-.219zM12 9.132 18.955 14 12 18.87 5.045 14z" fill="#435779"/>
    <path d="M11.983 5.5a1.068.747 0 0 0-.738.219L2.312 11.97a1.068.747 0 0 0 0 1.057l8.933 6.253a1.068.747 0 0 0 1.509 0l8.934-6.253a1.068.747 0 0 0 0-1.057l-8.934-6.252a1.068.747 0 0 0-.77-.219zM12 7.632l6.955 4.867L12 17.37 5.045 12.5z" opacity=".2"/>
    <path d="M11.983 5a1.068.747 0 0 0-.738.219L2.312 11.47a1.068.747 0 0 0 0 1.057l8.933 6.253a1.068.747 0 0 0 1.509 0l8.934-6.253a1.068.747 0 0 0 0-1.057l-8.934-6.252a1.068.747 0 0 0-.77-.219zM12 7.132l6.955 4.867L12 16.87 5.045 12z" fill="#ff9556"/>
    <path d="M11.983 3.5a1.068.747 0 0 0-.738.219L2.312 9.971a1.068.747 0 0 0 0 1.057l8.933 6.254a1.068.747 0 0 0 1.509 0l8.934-6.254a1.068.747 0 0 0 0-1.057l-8.934-6.252a1.068.747 0 0 0-.77-.219zM12 5.632l6.955 4.867L12 15.37 5.045 10.5z" opacity=".2"/>
    <path d="M11.983 3a1.068.747 0 0 0-.738.219L2.312 9.471a1.068.747 0 0 0 0 1.057l8.933 6.254a1.068.747 0 0 0 1.509 0l8.934-6.254a1.068.747 0 0 0 0-1.057l-8.934-6.252a1.068.747 0 0 0-.77-.219zM12 5.132 18.955 10 12 14.87 5.045 10z" fill="#6187ab"/>
    <path d="M11.983 3a1.068.747 0 0 0-.738.219L2.312 9.47a1.068.747 0 0 0-.25.778 1.068.747 0 0 1 .25-.278l8.933-6.252a1.068.747 0 0 1 .738-.219 1.068.747 0 0 1 .77.219l8.935 6.252a1.068.747 0 0 1 .25.278 1.068.747 0 0 0-.25-.778l-8.934-6.252a1.068.747 0 0 0-.77-.219zm-6.58 7.249-.358.25L12 15.369l6.955-4.87-.357-.25L12 14.869z" fill="#f4f4f7" opacity=".2"/>
</svg>
